src/img/icons/icons.svg

<svg aria-hidden="true" xmlns="http://www.w3.org/2000/svg" xmlns:xlink="http://www.w3.org/1999/xlink"><symbol viewBox="0 0 20 12" id="arrow" xmlns="http://www.w3.org/2000/svg">
	<desc>
			Created with Pixso.
	</desc>
	<defs/>
	<path id="cShape" d="M1.00002 6.83334C0.539795 6.83334 0.166687 6.46027 0.166687 6.00003C0.166687 5.53979 0.539795 5.16669 1.00002 5.16669L19 5.16669C19.4603 5.16669 19.8334 5.53979 19.8334 6.00003C19.8334 6.46027 19.4603 6.83334 19 6.83334L1.00002 6.83334Z" fill-opacity="1.000000" fill-rule="nonzero"/>
	<path id="cShape" d="M17.8214 6.00003L13.4107 1.58926C13.0853 1.26382 13.0853 0.736206 13.4107 0.410767C13.7361 0.0853271 14.2638 0.0853271 14.5892 0.410767L19.5892 5.41077C19.9147 5.73621 19.9147 6.26382 19.5892 6.58926L14.5892 11.5893C14.2638 11.9147 13.7361 11.9147 13.4107 11.5893C13.0853 11.2639 13.0853 10.7362 13.4107 10.4108L17.8214 6.00003Z" fill-opacity="1.000000" fill-rule="nonzero"/>
</symbol><symbol viewBox="0 0 24 24" id="arrow-left" xmlns="http://www.w3.org/2000/svg">
<path d="M10.7672 7.5431C11.0672 7.25744 11.0788 6.78271 10.7931 6.48276C10.5074 6.18281 10.0327 6.17123 9.73276 6.4569L10.7672 7.5431ZM4.48276 11.4569C4.18281 11.7426 4.17123 12.2173 4.4569 12.5172C4.74256 12.8172 5.21729 12.8288 5.51724 12.5431L4.48276 11.4569ZM5.51724 11.4569C5.21729 11.1712 4.74256 11.1828 4.4569 11.4828C4.17123 11.7827 4.18281 12.2574 4.48276 12.5431L5.51724 11.4569ZM9.73276 17.5431C10.0327 17.8288 10.5074 17.8172 10.7931 17.5172C11.0788 17.2173 11.0672 16.7426 10.7672 16.4569L9.73276 17.5431ZM5 11.25C4.58579 11.25 4.25 11.5858 4.25 12C4.25 12.4142 4.58579 12.75 5 12.75V11.25ZM19 12.75C19.4142 12.75 19.75 12.4142 19.75 12C19.75 11.5858 19.4142 11.25 19 11.25V12.75ZM9.73276 6.4569L4.48276 11.4569L5.51724 12.5431L10.7672 7.5431L9.73276 6.4569ZM4.48276 12.5431L9.73276 17.5431L10.7672 16.4569L5.51724 11.4569L4.48276 12.5431ZM5 12.75H19V11.25H5V12.75Z"/>
</symbol><symbol viewBox="0 0 24 24" id="arrow-right" xmlns="http://www.w3.org/2000/svg">
<path d="M13.2328 16.4569C12.9328 16.7426 12.9212 17.2173 13.2069 17.5172C13.4926 17.8172 13.9673 17.8288 14.2672 17.5431L13.2328 16.4569ZM19.5172 12.5431C19.8172 12.2574 19.8288 11.7827 19.5431 11.4828C19.2574 11.1828 18.7827 11.1712 18.4828 11.4569L19.5172 12.5431ZM18.4828 12.5431C18.7827 12.8288 19.2574 12.8172 19.5431 12.5172C19.8288 12.2173 19.8172 11.7426 19.5172 11.4569L18.4828 12.5431ZM14.2672 6.4569C13.9673 6.17123 13.4926 6.18281 13.2069 6.48276C12.9212 6.78271 12.9328 7.25744 13.2328 7.5431L14.2672 6.4569ZM19 12.75C19.4142 12.75 19.75 12.4142 19.75 12C19.75 11.5858 19.4142 11.25 19 11.25V12.75ZM5 11.25C4.58579 11.25 4.25 11.5858 4.25 12C4.25 12.4142 4.58579 12.75 5 12.75V11.25ZM14.2672 17.5431L19.5172 12.5431L18.4828 11.4569L13.2328 16.4569L14.2672 17.5431ZM19.5172 11.4569L14.2672 6.4569L13.2328 7.5431L18.4828 12.5431L19.5172 11.4569ZM19 11.25L5 11.25V12.75L19 12.75V11.25Z"/>
</symbol><symbol viewBox="0 0 11 16" id="play" xmlns="http://www.w3.org/2000/svg">
	<desc>
			Created with Pixso.
	</desc>
	<defs/>
	<path id="dTriangle 2" d="M11 8L0 16L0 0L11 8Z" fill-opacity="1.000000" fill-rule="nonzero"/>
	<path id="dTriangle 2" d="M0 16L0 0L11 8L0 16Z" stroke-opacity="0" stroke-width="0.000000"/>
</symbol><symbol viewBox="0 0 15.585 14.8621" id="star" xmlns="http://www.w3.org/2000/svg">
	<desc>
			Created with Pixso.
	</desc>
	<defs/>
	<g opacity="0.100000">
		<path id="fShape" d="M8.16101 0.244873L10.1434 4.93677L15.2186 5.3728C15.5706 5.40332 15.7138 5.84229 15.4467 6.07349L11.597 9.40869L12.7506 14.3704C12.8306 14.7151 12.457 14.9863 12.1546 14.8032L7.79303 12.1729L3.4314 14.8032C3.12823 14.9856 2.75543 14.7144 2.83545 14.3704L3.98901 9.40869L0.138611 6.07275C-0.128601 5.84155 0.013855 5.40234 0.366638 5.37207L5.44183 4.93604L7.42426 0.244873C7.56183 -0.081543 8.02344 -0.081543 8.16101 0.244873Z" fill-opacity="1.000000" fill-rule="nonzero"/>
	</g>
</symbol><symbol viewBox="0 0 15.585 14.8622" id="star-fill" xmlns="http://www.w3.org/2000/svg">
	<desc>
			Created with Pixso.
	</desc>
	<defs/>
	<path id="eShape" d="M8.16101 0.244751L10.1434 4.93677L15.2186 5.3728C15.5706 5.4032 15.7138 5.84241 15.4467 6.07361L11.597 9.40881L12.7506 14.3704C12.8306 14.7152 12.457 14.9865 12.1546 14.8032L7.79303 12.1729L3.4314 14.8032C3.12823 14.9856 2.75543 14.7144 2.83545 14.3704L3.98901 9.40881L0.138611 6.07275C-0.128601 5.84155 0.013855 5.40234 0.366638 5.37195L5.44183 4.93604L7.42426 0.244751C7.56183 -0.081543 8.02344 -0.081543 8.16101 0.244751Z" fill-opacity="1.000000" fill-rule="nonzero"/>
</symbol></svg>

<svg xmlns="http://www.w3.org/2000/svg" xmlns:xlink="http://www.w3.org/1999/xlink"><symbol id="arrow-down" viewBox="0 0 16.008 16"><g fill="none"><path d="M8.004 1v14M15.004 8l-7 7-7-7" stroke="#FFF" stroke-width="2" stroke-linejoin="round" stroke-linecap="round"/></g></symbol><symbol id="arrow-left" viewBox="0 0 16 16.008"><g fill="none"><path d="M15 8.004H1M8 15.004l-7-7 7-7" stroke="#196884" stroke-width="2" stroke-linejoin="round" stroke-linecap="round"/></g></symbol><symbol id="arrow-right" viewBox="0 0 16 16.008"><g fill="none"><path d="M1 8.004h14M8 1.004l7 7-7 7" stroke="#196884" stroke-width="2" stroke-linejoin="round" stroke-linecap="round"/></g></symbol><symbol id="arrow" viewBox="0 0 20 12"><g><path d="M1 6.833a.833.833 0 1 1 0-1.666h18a.833.833 0 1 1 0 1.666H1Z"/><path d="m17.821 6-4.41-4.41A.833.833 0 0 1 14.589.41l5 5a.833.833 0 0 1 0 1.18l-5 5a.833.833 0 0 1-1.178-1.18L17.82 6Z"/></g></symbol><symbol id="eye" viewBox="0 0 24 18"><g fill="none"><path d="M12 1c7 0 11 8 11 8s-4 8-11 8S1 9 1 9s4-8 11-8Z" stroke="#FFF" stroke-width="2" stroke-linejoin="round"/><path d="M15 9a3 3 0 1 0-6 0 3 3 0 0 0 6 0Z" stroke="#FFF" stroke-width="2" stroke-linejoin="round"/></g></symbol><symbol id="play" viewBox="0 0 11 16"><g><path d="M11 8 0 16V0l11 8Z"/></g></symbol><symbol id="star-fill" viewBox="0 0 15.585 14.862"><g><path d="m8.161.245 1.982 4.692 5.076.436a.4.4 0 0 1 .228.7l-3.85 3.336 1.154 4.961a.4.4 0 0 1-.596.433l-4.362-2.63-4.362 2.63a.4.4 0 0 1-.596-.433L3.99 9.41.139 6.073a.4.4 0 0 1 .228-.701l5.075-.436L7.424.245a.4.4 0 0 1 .737 0Z"/></g></symbol><symbol id="star" viewBox="0 0 15.585 14.862"><g><path d="m8.161.245 1.982 4.692 5.076.436a.4.4 0 0 1 .228.7l-3.85 3.336 1.154 4.961a.4.4 0 0 1-.596.433l-4.362-2.63-4.362 2.63a.4.4 0 0 1-.596-.433L3.99 9.41.139 6.073a.4.4 0 0 1 .228-.7l5.075-.437L7.424.245a.4.4 0 0 1 .737 0Z" opacity=".1"/></g></symbol></svg>
